X: 1
T: The Boys Of Ballinahinch
R: reel
M: 4/4
L: 1/8
K: Dmaj
f2df eBBA|Bdef g2ag|f2df eBBc|dBAF E2D2:|
fgaf d4|fgaf g4|faab afdf|gefd B2A2||
fgaf d4|fgaf g3a|bgaf gfed|cdef g2ag||


Tune 1348	Setting 23501

